X:230
T: Drops of Spring Water
S: "Traditional Irish Music" (K.Tweed)
Z: B.Black
L: 1/8
M: 9/8
R: slip jig
K: D
d3 dAG FED|dec dAF G2 E|ABc dAG FGA|=c3 E2 F GFE :|
D2 f fdf ecA|d2 g fdf gfe|d2 g fdf eAB|\
=cBc E2 F GFE|
D2 f fdf ecA|d2 g fdf g2 ^g|afd f/e/dc dAB|\
=c3 E2 F GFE||
